apps/website/src/assets/logos/wordmark-black.svg

<svg width="318" height="74" viewBox="0 0 318 74" fill="none" xmlns="http://www.w3.org/2000/svg">
  <g clip-path="url(#clip0_516_126)">
    <path
      d="M232.411 8.10203C228.831 6.50167 224.608 5.70508 219.741 5.70508H195.104C195.104 5.70508 191.086 5.70508 190.558 5.70508H179.558C178.675 5.70508 177.976 5.94908 177.449 6.44426C176.977 6.87485 176.655 7.27673 176.484 7.64274L163.813 31.44L151.136 7.64274C151.019 7.27673 150.697 6.87485 150.17 6.44426C149.698 5.94908 149.027 5.70508 148.144 5.70508H90.1974C89.5539 5.70508 89.0268 5.92037 88.6161 6.35096C88.2054 6.78155 88 7.33415 88 8.00874V17.8764C88 18.4936 88.2054 19.0462 88.6161 19.5342C89.0268 19.9648 89.5539 20.1801 90.1974 20.1801H105.873V67.9828C105.873 68.6574 106.079 69.21 106.49 69.6406C106.9 70.0712 107.427 70.2865 108.071 70.2865H119.688C120.331 70.2865 120.858 70.0712 121.269 69.6406C121.68 69.21 121.885 68.6574 121.885 67.9828V20.1873H141.436L155.886 48.1326V67.9828C155.886 68.6574 156.092 69.21 156.502 69.6406C156.975 70.0712 157.502 70.2865 158.084 70.2865H169.522C170.166 70.2865 170.693 70.0712 171.104 69.6406C171.514 69.21 171.72 68.6574 171.72 67.9828V48.1326L192.9 7.44897V67.99C192.9 68.6646 193.105 69.2172 193.516 69.6478C193.926 70.0784 194.453 70.2936 195.097 70.2936H206.974C207.617 70.2936 208.144 70.0784 208.555 69.6478C209.027 69.2172 209.26 68.6646 209.26 67.99V47.7666H219.734C224.601 47.7666 228.824 47.0274 232.405 45.5562C236.04 44.0779 238.86 41.8029 240.852 38.7314C242.905 35.6598 243.932 31.7486 243.932 27.0193C243.932 22.29 242.905 18.2568 240.852 15.1207C238.86 11.9845 236.04 9.64498 232.405 8.10921L232.411 8.10203ZM225.285 33.0045C223.82 34.3609 221.822 35.0355 219.302 35.0355H209.007V18.5223H219.302C222.232 18.5223 224.348 19.3189 225.634 20.9193C226.928 22.5196 227.572 24.486 227.572 26.8255C227.572 29.5957 226.812 31.6553 225.285 33.0045Z"
      fill="#100F0D"
    />
    <path
      d="M262.627 5.70508H250.839C250.196 5.70508 249.669 5.92037 249.258 6.35096C248.847 6.78155 248.642 7.33415 248.642 8.00874V67.9828C248.642 68.6574 248.847 69.21 249.258 69.6406C249.669 70.0712 250.196 70.2865 250.839 70.2865H262.627C263.27 70.2865 263.797 70.0712 264.208 69.6406C264.619 69.21 264.824 68.6574 264.824 67.9828V8.00874C264.824 7.33415 264.619 6.78155 264.208 6.35096C263.797 5.92037 263.27 5.70508 262.627 5.70508Z"
      fill="#100F0D"
    />
    <path
      d="M317.391 57.6343C316.98 57.2037 316.453 56.9884 315.81 56.9884H287.038V44.164H313.174C313.817 44.164 314.345 43.9487 314.755 43.5181C315.166 43.0229 315.371 42.4703 315.371 41.8603V33.837C315.371 33.1624 315.166 32.6098 314.755 32.1792C314.345 31.684 313.817 31.44 313.174 31.44H287.038V18.9888H315.104C315.748 18.9888 316.275 18.7735 316.686 18.3429C317.096 17.9123 317.302 17.3597 317.302 16.6851V8.00874C317.302 7.33415 317.096 6.78155 316.686 6.35096C316.275 5.92037 315.748 5.70508 315.104 5.70508H274.011C273.368 5.70508 272.841 5.92037 272.43 6.35096C272.019 6.78155 271.814 7.33415 271.814 8.00874V67.9828C271.814 68.6574 272.019 69.21 272.43 69.6406C272.841 70.0712 273.368 70.2865 274.011 70.2865H315.803C316.446 70.2865 316.973 70.0712 317.384 69.6406C317.795 69.21 318 68.6574 318 67.9828V59.2921C318 58.6175 317.795 58.0649 317.384 57.6343H317.391Z"
      fill="#100F0D"
    />
  </g>
  <rect y="1" width="72" height="72" rx="20" fill="#100F0D" />
  <path
    d="M44.3298 31.0032C45.0498 28.6803 46.611 26.4568 48.1478 24.9607C48.492 24.6259 48.2496 24.0625 47.7577 24.0625C42.131 24.0625 37.2265 28.2786 34.6447 34.5197C33.0446 32.6356 30.6667 31.3424 27.9563 31.0586C28.6689 28.7149 30.2423 26.4684 31.7914 24.9607C32.1356 24.6259 31.8932 24.0625 31.401 24.0625C24.7465 24.0625 19.1053 29.9524 17.1126 38.1191C17.1199 38.1098 16.875 39.4652 16.875 40.1854C16.875 45.2606 21.3259 49.375 26.8169 49.375C30.5041 49.375 33.721 47.5188 35.4375 44.7619C37.154 47.5188 40.3709 49.375 44.0581 49.375C49.5489 49.375 54 45.2606 54 40.1854C54 35.1106 49.6921 31.1345 44.3247 31.0032H44.3298Z"
    fill="#FEFDF9"
  />
  <defs>
    <clipPath id="clip0_516_126">
      <rect width="230" height="66" fill="white" transform="translate(88 5)" />
    </clipPath>
  </defs>
</svg>

<svg xmlns="http://www.w3.org/2000/svg" fill="none" viewBox="0 0 318 74">
  <g fill="#100f0d" clip-path="url(#a)">
    <path
      d="M232.411 8.102q-5.37-2.399-12.67-2.397h-40.183c-.883 0-1.582.244-2.109.74q-.708.647-.965 1.198L163.813 31.44 151.136 7.643q-.175-.55-.966-1.199c-.472-.495-1.143-.739-2.026-.739H90.197q-.965 0-1.58.646-.618.645-.617 1.658v9.867q0 .926.616 1.658.616.645 1.581.646h15.676v47.803q0 1.011.617 1.658.615.645 1.581.645h11.617q.965 0 1.581-.645.616-.647.616-1.658V20.187h19.551l14.45 27.946v19.85q0 1.011.616 1.658.71.645 1.582.645h11.438q.966 0 1.582-.645.615-.647.616-1.658v-19.85L192.9 7.449V67.99q0 1.012.616 1.658.615.645 1.581.646h11.877q.964 0 1.581-.646.707-.645.705-1.658V47.767h10.474c4.867 0 9.09-.74 12.671-2.21 3.635-1.48 6.455-3.754 8.447-6.826 2.053-3.071 3.08-6.982 3.08-11.712s-1.027-8.762-3.08-11.898c-1.992-3.136-4.812-5.476-8.447-7.012zm-7.126 24.903c-1.465 1.356-3.463 2.03-5.983 2.03h-10.295V18.522h10.295c2.93 0 5.046.797 6.332 2.397q1.94 2.398 1.938 5.907.002 4.155-2.287 6.179m37.342-27.3h-11.788q-.964 0-1.581.646-.616.645-.616 1.658v59.974q0 1.011.616 1.658.617.645 1.581.645h11.788q.964 0 1.581-.645.616-.647.616-1.658V8.009q0-1.012-.616-1.658t-1.581-.646m54.764 51.929q-.616-.645-1.581-.646h-28.772V44.164h26.136q.965 0 1.581-.646.616-.743.616-1.658v-8.023q0-1.012-.616-1.658a1.96 1.96 0 0 0-1.581-.739h-26.136V18.989h28.066q.966 0 1.582-.646.616-.645.616-1.658V8.01q0-1.012-.616-1.658t-1.582-.646h-41.093q-.964 0-1.581.646-.616.645-.616 1.658v59.974q0 1.011.616 1.658.617.645 1.581.645h41.792q.965 0 1.581-.645.616-.647.616-1.658v-8.69q0-1.012-.616-1.659z"
    />
  </g>
  <rect width="72" height="72" y="1" fill="#100f0d" rx="20" />
  <path
    fill="#fefdf9"
    d="M44.33 31.003c.72-2.323 2.281-4.546 3.818-6.042.344-.335.102-.898-.39-.898-5.627 0-10.532 4.216-13.113 10.457-1.6-1.884-3.978-3.178-6.689-3.461.713-2.344 2.286-4.59 3.835-6.098.345-.335.102-.898-.39-.898-6.654 0-12.296 5.89-14.288 14.056.007-.01-.238 1.346-.238 2.066 0 5.076 4.45 9.19 9.942 9.19 3.687 0 6.904-1.856 8.62-4.613 1.717 2.757 4.934 4.613 8.621 4.613 5.49 0 9.942-4.114 9.942-9.19 0-5.074-4.308-9.05-9.675-9.182z"
  />
  <defs>
    <clipPath id="a">
      <path fill="#fff" d="M88 5h230v66H88z" />
    </clipPath>
  </defs>
</svg>
